assets/icons/24px/outline/github-24px.svg

<svg width="24" height="24" viewBox="0 0 24 24" fill="none" xmlns="http://www.w3.org/2000/svg">
<path d="M9.46154 18.8852C4.84615 20.1677 4.84615 16.3203 3 16.3203M15.9231 21L15.9231 17.6685C15.9624 17.2055 15.8754 16.738 15.6804 16.313C15.5025 15.9255 15.7076 15.364 16.1273 15.2883C18.6581 14.8318 21 13.5454 21 9.45228C20.9998 8.47645 20.6685 7.53121 20.062 6.74636C19.8138 6.42513 19.7261 6.00218 19.8144 5.60594C19.9732 4.89267 19.9355 4.15235 19.7033 3.45429C19.6104 3.17494 19.3637 2.98394 19.0704 3.00933C18.5761 3.05214 17.6708 3.26359 16.2874 4.06902C16.0534 4.20529 15.7752 4.24918 15.5105 4.19173C13.6569 3.78935 11.7277 3.78935 9.8741 4.19173C9.60944 4.24918 9.33126 4.20529 9.09721 4.06902C7.71384 3.26359 6.80855 3.05214 6.31419 3.00933C6.02088 2.98394 5.77421 3.17494 5.68128 3.45429C5.44907 4.15235 5.41146 4.89266 5.57025 5.60592C5.65846 6.00217 5.57077 6.42514 5.32255 6.74637C4.71067 7.53825 4.37896 8.49325 4.38462 9.47793C4.38462 13.5511 6.73814 14.8301 9.27616 15.3064C9.69235 15.3845 9.89107 15.9393 9.71235 16.3232C9.51619 16.7445 9.42659 17.2083 9.46154 17.6685L9.46155 21" stroke="white" stroke-width="2" stroke-linecap="round" stroke-linejoin="round"/>
</svg>

<svg width="24" height="24" fill="none" xmlns="http://www.w3.org/2000/svg"><path d="M9.462 18.885C4.846 20.168 4.846 16.32 3 16.32M15.923 21v-3.331c.04-.463-.048-.931-.243-1.356-.178-.387.028-.949.447-1.025C18.658 14.832 21 13.545 21 9.452c0-.976-.331-1.92-.938-2.706a1.381 1.381 0 0 1-.248-1.14 4.028 4.028 0 0 0-.11-2.152c-.094-.28-.34-.47-.634-.445-.494.043-1.4.255-2.783 1.06-.234.136-.512.18-.776.123a13.31 13.31 0 0 0-5.637 0 1.088 1.088 0 0 1-.777-.123c-1.383-.805-2.288-1.017-2.783-1.06-.293-.025-.54.166-.633.445a4.028 4.028 0 0 0-.11 2.152c.087.396 0 .82-.248 1.14a4.42 4.42 0 0 0-.938 2.732c0 4.073 2.353 5.352 4.891 5.828.416.079.615.633.436 1.017a2.708 2.708 0 0 0-.25 1.346V21" stroke="#fff" stroke-width="2" stroke-linecap="round" stroke-linejoin="round"/></svg>
